svg/emoji_u1f3a6.svg

<svg width="128" height="128" viewBox="0 0 128 128" fill="none" xmlns="http://www.w3.org/2000/svg">
<path d="M116 4H12C7.58 4 4 7.58 4 12V116C4 120.42 7.58 124 12 124H116C120.42 124 124 120.42 124 116V12C124 7.58 120.42 4 116 4Z" fill="#427687" style="fill:#427687;fill:color(display-p3 0.2588 0.4627 0.5294);fill-opacity:1;"/>
<path d="M109.7 4H11.5C7.37002 4.03 4.03002 7.37 4.00002 11.5V109.4C3.99002 113.54 7.34002 116.89 11.48 116.9C11.49 116.9 11.49 116.9 11.5 116.9H109.6C113.74 116.91 117.09 113.56 117.1 109.42C117.1 109.41 117.1 109.41 117.1 109.4V11.5C117.19 7.45 113.97 4.09 109.92 4C109.85 4 109.77 4 109.7 4Z" fill="#8CAFBF" style="fill:#8CAFBF;fill:color(display-p3 0.5490 0.6863 0.7490);fill-opacity:1;"/>
<path opacity="0.75" d="M39.6996 12.8999C39.6996 10.5999 38.0996 9.89988 28.8996 10.1999C21.1996 10.4999 17.3996 11.3999 15.0996 14.1999C12.7996 16.9999 12.1996 22.6999 12.0996 29.4999C12.0996 34.2999 12.0996 38.7999 14.5996 38.7999C17.9996 38.7999 17.9996 30.8999 20.7996 26.4999C26.1996 17.7999 39.6996 15.8999 39.6996 12.8999Z" fill="#9BC2D0" style="fill:#9BC2D0;fill:color(display-p3 0.6078 0.7608 0.8157);fill-opacity:1;"/>
<path d="M99.1002 61.5001H51.9002C48.7702 61.5301 46.2302 64.0701 46.2002 67.2001V76.6001L25.2002 61.9001C23.3202 60.9601 21.0402 61.7201 20.1002 63.6001C19.8402 64.1301 19.7002 64.7101 19.7002 65.3001V103C19.7302 105.12 21.4802 106.81 23.6002 106.78C24.1502 106.77 24.7002 106.64 25.2002 106.4L46.2002 91.7001V101.1C46.2002 104.25 48.7502 106.8 51.9002 106.8H99.1002C102.23 106.77 104.77 104.23 104.8 101.1V67.1001C104.76 63.9901 102.21 61.4901 99.1002 61.5001Z" fill="#FAFAFA" style="fill:#FAFAFA;fill:color(display-p3 0.9804 0.9804 0.9804);fill-opacity:1;"/>
<path d="M58.7998 62.2002C70.1216 62.2002 79.2998 53.022 79.2998 41.7002C79.2998 30.3784 70.1216 21.2002 58.7998 21.2002C47.478 21.2002 38.2998 30.3784 38.2998 41.7002C38.2998 53.022 47.478 62.2002 58.7998 62.2002Z" fill="#FAFAFA" style="fill:#FAFAFA;fill:color(display-p3 0.9804 0.9804 0.9804);fill-opacity:1;"/>
<path d="M93.9 62.3C101.853 62.3 108.3 55.8529 108.3 47.9C108.3 39.9471 101.853 33.5 93.9 33.5C85.9471 33.5 79.5 39.9471 79.5 47.9C79.5 55.8529 85.9471 62.3 93.9 62.3Z" fill="#FAFAFA" style="fill:#FAFAFA;fill:color(display-p3 0.9804 0.9804 0.9804);fill-opacity:1;"/>
</svg>

<?xml version="1.0" encoding="utf-8"?>
<!-- Generator: Adobe Illustrator 25.2.3, SVG Export Plug-In . SVG Version: 6.00 Build 0)  -->
<svg version="1.1" id="Layer_2" xmlns="http://www.w3.org/2000/svg" xmlns:xlink="http://www.w3.org/1999/xlink" x="0px" y="0px"
	 viewBox="0 0 128 128" style="enable-background:new 0 0 128 128;" xml:space="preserve">
<path style="fill:#F77E00;" d="M116,4H12c-4.42,0-8,3.58-8,8v104c0,4.42,3.58,8,8,8h104c4.42,0,8-3.58,8-8V12
	C124,7.58,120.42,4,116,4z"/>
<path style="fill:#FF9800;" d="M109.7,4H11.5C7.37,4.03,4.03,7.37,4,11.5v97.9c-0.01,4.14,3.34,7.49,7.48,7.5c0.01,0,0.01,0,0.02,0
	h98.1c4.14,0.01,7.49-3.34,7.5-7.48c0-0.01,0-0.01,0-0.02V11.5c0.09-4.05-3.13-7.41-7.18-7.5C109.85,4,109.77,4,109.7,4z"/>
<path style="opacity:0.75;fill:#FFBD52;enable-background:new    ;" d="M39.7,12.9c0-2.3-1.6-3-10.8-2.7c-7.7,0.3-11.5,1.2-13.8,4
	s-2.9,8.5-3,15.3c0,4.8,0,9.3,2.5,9.3c3.4,0,3.4-7.9,6.2-12.3C26.2,17.8,39.7,15.9,39.7,12.9z"/>
<path style="fill:#FAFAFA;" d="M99.1,61.5H51.9c-3.13,0.03-5.67,2.57-5.7,5.7v9.4l-21-14.7c-1.88-0.94-4.16-0.18-5.1,1.7
	c-0.26,0.53-0.4,1.11-0.4,1.7V103c0.03,2.12,1.78,3.81,3.9,3.78c0.55-0.01,1.1-0.14,1.6-0.38l21-14.7v9.4c0,3.15,2.55,5.7,5.7,5.7
	h47.2c3.13-0.03,5.67-2.57,5.7-5.7v-34C104.76,63.99,102.21,61.49,99.1,61.5z"/>
<circle style="fill:#FAFAFA;" cx="58.8" cy="41.7" r="20.5"/>
<circle style="fill:#FAFAFA;" cx="93.9" cy="47.9" r="14.4"/>
</svg>
